images/partners/vostok.svg

<svg width="196" height="47" viewBox="0 0 196 47" fill="none" xmlns="http://www.w3.org/2000/svg">
<path d="M180.737 14.5655L171.972 6.00636L163.208 14.5655L171.972 23.1246L180.737 14.5655ZM172.275 0.300293H181.342L196 14.5655L181.342 28.8306H172.275L186.933 14.5655L172.275 0.300293Z" fill="white"/>
<path d="M80.3948 19.2204C79.1858 21.623 76.7679 23.1246 74.0478 23.1246C69.0609 23.1246 66.643 19.0703 66.643 14.7157C66.643 10.361 69.212 6.30671 74.0478 6.30671C76.7679 6.30671 79.3369 7.80831 80.3948 10.2109L87.0439 7.35783C84.7772 2.85304 80.2436 0 74.0478 0C64.6785 0 59.3894 6.30671 59.3894 14.7157C59.3894 23.1246 64.8296 29.4313 74.0478 29.4313C80.2436 29.4313 84.7772 26.5783 87.0439 22.2236L80.3948 19.2204ZM42.9175 6.15655C47.9044 6.15655 50.3223 10.2109 50.3223 14.5655C50.3223 18.9201 47.7533 22.9744 42.9175 22.9744C38.0817 22.9744 35.5127 18.9201 35.5127 14.5655C35.5127 10.2109 37.9306 6.15655 42.9175 6.15655ZM42.9175 0C33.5482 0 28.2591 6.30671 28.2591 14.7157C28.2591 23.1246 33.6993 29.4313 42.9175 29.4313C52.1357 29.4313 57.5759 23.1246 57.5759 14.7157C57.5759 6.30671 52.1357 0 42.9175 0ZM7.10254 16.8179H16.1696C18.8897 16.8179 19.7965 17.869 19.7965 20.2716C19.7965 22.0735 18.7386 23.5751 14.8096 23.5751H7.10254V16.8179ZM6.95143 5.70607H14.9607C17.3786 5.70607 18.7386 6.30671 18.7386 8.70927C18.7386 10.8115 17.2274 11.7125 14.9607 11.7125H6.95143V5.70607ZM0 28.8307H15.2629C22.6677 28.8307 27.2012 26.5783 27.2012 20.722C27.2012 16.5176 24.0278 14.4153 19.9476 14.2652V14.115C23.8766 13.2141 26.1434 11.262 26.1434 7.65815C26.1434 2.2524 22.2143 0.300319 16.1696 0.300319H0V28.8307ZM125.277 6.15655C130.264 6.15655 132.682 10.2109 132.682 14.5655C132.682 18.9201 130.264 22.9744 125.277 22.9744C120.29 22.9744 117.872 18.9201 117.872 14.5655C117.872 10.2109 120.441 6.15655 125.277 6.15655ZM125.277 0C115.907 0 110.618 6.30671 110.618 14.7157C110.618 23.1246 116.059 29.4313 125.277 29.4313C134.646 29.4313 139.935 23.1246 139.935 14.7157C139.935 6.30671 134.646 0 125.277 0ZM87.9507 5.85623H95.6577V28.8307H103.062V5.85623H110.769V0.300319H88.1018L87.9507 5.85623ZM156.86 14.7157L171.519 28.9808H162.452L149.153 16.0671V28.9808H141.9V0.450479H149.305V13.3642L162.603 0.450479H171.67L156.86 14.7157Z" fill="white"/>
<path d="M123.917 32.5847H132.379V34.9873H126.486V38.7413C127.09 38.7413 128.299 38.7413 128.752 38.7413C131.775 38.7413 133.588 40.2429 133.588 42.7956C133.588 45.4985 131.775 47.0001 128.752 47.0001C127.09 47.0001 124.823 47.0001 123.917 47.0001V32.5847ZM126.486 40.6933V44.8978C127.241 44.8978 127.543 44.8978 128.45 44.8978C130.263 44.8978 131.17 43.9969 131.17 42.7956C131.17 41.5943 130.263 40.6933 128.45 40.6933C127.846 40.6933 127.241 40.6933 126.486 40.6933Z" fill="white"/>
<path d="M140.691 32.5847H142.957L149.304 47.0001H146.433L144.922 43.5464H138.273L136.762 47.0001H134.042L140.691 32.5847ZM139.18 41.7445H144.166L141.749 35.8882L139.18 41.7445Z" fill="white"/>
<path d="M160.336 40.8435H153.083V47.0001H150.514V32.5847H153.083V38.4409H160.336V32.5847H162.905V47.0001H160.336V40.8435Z" fill="white"/>
<path d="M165.928 32.5847H168.497V39.3419L174.239 32.5847H178.017L172.124 39.3419L178.471 47.0001H174.541L168.648 39.6422V47.0001H166.079L165.928 32.5847Z" fill="white"/>
</svg>

<svg width="196" height="47" fill="none" xmlns="http://www.w3.org/2000/svg">
  <path d="M180.737 14.566l-8.765-8.56-8.764 8.56 8.764 8.559 8.765-8.56zM172.275.3h9.067L196 14.565l-14.658 14.266h-9.067l14.658-14.265L172.275.3z" fill="#fff"/>
  <path d="M80.395 19.22a7.054 7.054 0 01-6.347 3.905c-4.987 0-7.405-4.055-7.405-8.41 0-4.354 2.569-8.408 7.405-8.408 2.72 0 5.289 1.501 6.347 3.904l6.649-2.853C84.777 2.853 80.244 0 74.048 0c-9.37 0-14.659 6.307-14.659 14.716 0 8.409 5.44 14.715 14.659 14.715 6.196 0 10.73-2.853 12.996-7.207l-6.65-3.004zM42.918 6.157c4.986 0 7.404 4.054 7.404 8.409 0 4.354-2.569 8.408-7.405 8.408-4.835 0-7.404-4.054-7.404-8.409 0-4.354 2.418-8.408 7.404-8.408zm0-6.157c-9.37 0-14.659 6.307-14.659 14.716 0 8.409 5.44 14.715 14.658 14.715 9.219 0 14.659-6.306 14.659-14.715C57.576 6.306 52.136 0 42.917 0zM7.102 16.818h9.067c2.72 0 3.627 1.051 3.627 3.454 0 1.802-1.058 3.303-4.987 3.303H7.103v-6.757zM6.95 5.706h8.01c2.418 0 3.778.6 3.778 3.003 0 2.103-1.512 3.004-3.778 3.004H6.95V5.706zM0 28.831h15.263c7.405 0 11.938-2.253 11.938-8.109 0-4.204-3.173-6.307-7.253-6.457v-.15c3.929-.9 6.195-2.853 6.195-6.457C26.143 2.252 22.214.3 16.17.3H0v28.53zM125.277 6.157c4.987 0 7.405 4.054 7.405 8.409 0 4.354-2.418 8.408-7.405 8.408s-7.405-4.054-7.405-8.409c0-4.354 2.569-8.408 7.405-8.408zm0-6.157c-9.37 0-14.659 6.307-14.659 14.716 0 8.409 5.441 14.715 14.659 14.715 9.369 0 14.658-6.306 14.658-14.715 0-8.41-5.289-14.716-14.658-14.716zM87.951 5.856h7.707v22.975h7.404V5.856h7.707V.3H88.102l-.151 5.556zm68.909 8.86l14.659 14.265h-9.067l-13.299-12.914v12.914H141.9V.45h7.405v12.913L162.603.45h9.067l-14.81 14.266zM123.917 32.585h8.462v2.402h-5.893v3.754h2.266c3.023 0 4.836 1.502 4.836 4.055 0 2.703-1.813 4.204-4.836 4.204h-4.835V32.585zm2.569 8.108v4.205h1.964c1.813 0 2.72-.901 2.72-2.102 0-1.202-.907-2.103-2.72-2.103h-1.964zM140.691 32.585h2.266L149.304 47h-2.871l-1.511-3.454h-6.649L136.762 47h-2.72l6.649-14.415zm-1.511 9.16h4.986l-2.417-5.857-2.569 5.857zM160.336 40.843h-7.253V47h-2.569V32.585h2.569v5.856h7.253v-5.856h2.569V47h-2.569v-6.157zM165.928 32.585h2.569v6.757l5.742-6.757h3.778l-5.893 6.757L178.471 47h-3.93l-5.893-7.358V47h-2.569l-.151-14.415z" fill="#fff"/>
</svg>
